svg/500/outlined/sensors_krx.svg

<svg xmlns="http://www.w3.org/2000/svg" width="48" height="48" viewBox="0 -960 960 960"><path d="M143.22-253.65q-32.61-48.72-50.9-106.07-18.3-57.35-18.3-120.29 0-63.95 18.26-120.76t50.94-105.58l55.26 37.59q-28 41-43 88.34t-15 100.58q0 53.24 15 101.04 15 47.8 43 88.56l-55.26 36.59Zm336.74 13.17q-99.96 0-169.72-69.8t-69.76-169.76q0-99.96 69.8-169.72t169.76-69.76q99.96 0 169.72 69.8t69.76 169.76q0 99.96-69.8 169.72t-169.76 69.76Zm.04-66.45q72.13 0 122.6-50.47T653.07-480q0-72.13-50.47-122.6T480-653.07q-72.13 0-122.6 50.47T306.93-480q0 72.13 50.47 122.6T480-306.93Zm335.02 53.28-54.26-36.59q27.76-40.72 42.88-88.59 15.12-47.87 15.12-101.06 0-53.19-15.12-100.53t-42.88-88.34l54.26-37.59q32.56 48.72 51.38 105.57 18.82 56.84 18.82 120.74 0 62.88-18.8 120.26-18.79 57.39-51.4 106.13ZM480-480Z"/></svg>

<svg xmlns="http://www.w3.org/2000/svg" width="48" height="48" viewBox="0 -960 960 960"><path d="M143.22-253.65q-32.72-48.72-50.96-106.06Q74.02-417.04 74.02-480q0-63.96 18.24-120.79 18.24-56.84 50.96-105.56l55.26 37.59q-28 41-43 88.38-15 47.38-15 100.38 0 53 15 101t43 88.76l-55.26 36.59Zm167.02-56.59Q240.48-380 240.48-480q0-100 69.76-169.76Q380-719.52 480-719.52q100 0 169.76 69.76Q719.52-580 719.52-480q0 100-69.76 169.76Q580-240.48 480-240.48q-100 0-169.76-69.76ZM602.6-357.4q50.47-50.47 50.47-122.6T602.6-602.6q-50.47-50.47-122.6-50.47T357.4-602.6q-50.47 50.47-50.47 122.6t50.47 122.6q50.47 50.47 122.6 50.47t122.6-50.47Zm212.42 103.75-54.26-36.59Q788.52-331 803.64-379q15.12-48 15.12-101t-15.12-100.38q-15.12-47.38-42.88-88.38l54.26-37.59q32.72 48.72 51.46 105.56 18.74 56.83 18.74 120.79 0 62.96-18.74 120.29-18.74 57.34-51.46 106.06ZM480-480Z"/></svg>
